build/redact/BorderBoldTopOutline.svg

<svg xmlns="http://www.w3.org/2000/svg" fill="none" viewBox="0 0 24 24" focusable="false"><path d="M0 0H24V24H0z" transform="matrix(1 0 0 -1 0 24)"/><path fill="#74767B" fill-rule="evenodd" d="M4 7.55078L4.01019 7.55078C4.00919 7.58583 4.00869 7.62099 4.00869 7.65625L4.00869 8.31345C4.00869 8.67244 4.29971 8.96345 4.65869 8.96345C5.01768 8.96345 5.30869 8.67244 5.30869 8.31345L5.30869 7.65625C5.30869 7.62088 5.30947 7.58572 5.311 7.55078L11.3758 7.55078C11.3591 7.60845 11.3501 7.66944 11.3501 7.73252L11.3501 8.92764C11.3501 9.28662 11.6411 9.57764 12.0001 9.57764C12.3591 9.57764 12.6501 9.28662 12.6501 8.92764L12.6501 7.73252C12.6501 7.66944 12.6411 7.60845 12.6243 7.55078L18.6994 7.55078C18.7009 7.58572 18.7017 7.62088 18.7017 7.65625L18.7017 8.31345C18.7017 8.67244 18.9927 8.96345 19.3517 8.96345C19.7107 8.96345 20.0017 8.67244 20.0017 8.31345L20.0017 7.65625C20.0017 7.61888 20.0011 7.58162 20 7.54449L20 7C20 5.34315 18.6569 4 17 4L7 4C5.34315 4 4 5.34315 4 7L4 7.55078ZM20.0017 11.3467C20.0017 10.9877 19.7107 10.6967 19.3517 10.6967C18.9927 10.6967 18.7017 10.9877 18.7017 11.3467L18.7017 12.6611C18.7017 13.0201 18.9927 13.3111 19.3517 13.3111C19.7107 13.3111 20.0017 13.0201 20.0017 12.6611L20.0017 11.3467ZM5.30869 11.3467C5.30869 10.9877 5.01768 10.6967 4.65869 10.6967C4.29971 10.6967 4.00869 10.9877 4.00869 11.3467L4.00869 12.6611C4.00869 13.0201 4.29971 13.3111 4.65869 13.3111C5.01768 13.3111 5.30869 13.0201 5.30869 12.6611L5.30869 11.3467ZM7.72861 11.354C7.36963 11.354 7.07861 11.645 7.07861 12.004C7.07861 12.363 7.36963 12.654 7.72861 12.654L8.92373 12.654C9.28271 12.654 9.57373 12.363 9.57373 12.004C9.57373 11.645 9.28272 11.354 8.92373 11.354L7.72861 11.354ZM15.0763 11.354C14.7173 11.354 14.4263 11.645 14.4263 12.004C14.4263 12.363 14.7173 12.654 15.0763 12.654L16.2714 12.654C16.6304 12.654 16.9214 12.363 16.9214 12.004C16.9214 11.645 16.6304 11.354 16.2714 11.354L15.0763 11.354ZM12.0001 16.9233C12.3591 16.9233 12.6501 16.6323 12.6501 16.2733L12.6501 15.0782C12.6501 14.7192 12.3591 14.4282 12.0001 14.4282C11.6411 14.4282 11.3501 14.7192 11.3501 15.0782L11.3501 16.2733C11.3501 16.6323 11.6411 16.9233 12.0001 16.9233ZM20.0017 15.6944C20.0017 15.3354 19.7107 15.0444 19.3517 15.0444C18.9927 15.0444 18.7017 15.3354 18.7017 15.6944L18.7017 16.3516C18.7017 16.543 18.6789 16.7283 18.6363 16.9051C18.6239 16.9563 18.618 17.0076 18.618 17.0581C18.618 17.3514 18.818 17.6176 19.1157 17.6894C19.4647 17.7736 19.8159 17.5589 19.9 17.2099C19.9666 16.934 20.0017 16.6465 20.0017 16.3516L20.0017 15.6944ZM5.30869 15.6944C5.30869 15.3354 5.01768 15.0444 4.65869 15.0444C4.29971 15.0444 4.00869 15.3354 4.00869 15.6944L4.00869 16.3516C4.00869 16.6465 4.04379 16.934 4.11035 17.2099C4.19452 17.5589 4.54566 17.7736 4.89463 17.6894C5.1924 17.6176 5.39238 17.3514 5.39238 17.0581C5.39238 17.0076 5.38646 16.9563 5.37411 16.9051C5.33145 16.7283 5.30869 16.543 5.30869 16.3516L5.30869 15.6944ZM7.10514 18.6361C6.75616 18.552 6.40502 18.7666 6.32085 19.1156C6.3085 19.1668 6.30258 19.2181 6.30258 19.2686C6.30258 19.5619 6.50256 19.8281 6.80032 19.8999C7.07625 19.9665 7.3638 20.0016 7.65869 20.0016L8.31572 20.0016C8.67471 20.0016 8.96572 19.7105 8.96572 19.3516C8.96572 18.9926 8.67471 18.7016 8.31572 18.7016L7.65869 18.7016C7.46726 18.7016 7.282 18.6788 7.10514 18.6361ZM17.2101 19.8999C17.5078 19.8281 17.7078 19.5619 17.7078 19.2686C17.7078 19.2181 17.7019 19.1668 17.6895 19.1156C17.6054 18.7666 17.2542 18.552 16.9052 18.6361C16.7284 18.6788 16.5431 18.7016 16.3517 18.7016L15.6947 18.7016C15.3357 18.7016 15.0447 18.9926 15.0447 19.3516C15.0447 19.7105 15.3357 20.0016 15.6947 20.0016L16.3517 20.0016C16.6466 20.0016 16.9341 19.9665 17.2101 19.8999ZM11.3482 18.7016C10.9892 18.7016 10.6982 18.9926 10.6982 19.3516C10.6982 19.7105 10.9892 20.0016 11.3482 20.0016L12.6622 20.0016C13.0212 20.0016 13.3122 19.7105 13.3122 19.3516C13.3122 18.9926 13.0212 18.7016 12.6622 18.7016L11.3482 18.7016Z"/></svg>

<svg xmlns="http://www.w3.org/2000/svg" fill="none" viewBox="0 0 24 24" focusable="false"><path fill="#74767B" fill-rule="evenodd" d="M4 7.55h.01c-.01.03-.01.07-.01.1v.66c0 .36.29.65.65.65s.65-.29.65-.65v-.66c0-.03 0-.07.01-.1h6.06c-.02.05-.02.11-.02.18v1.19c0 .36.29.65.65.65.35 0 .64-.29.64-.65V7.73c0-.07 0-.13-.02-.18h6.07c.01.03.01.07.01.1v.66c0 .36.29.65.65.65s.65-.29.65-.65V7c0-1.66-1.35-3-3-3H7C5.34 4 4 5.34 4 7zm16 3.79c0-.36-.29-.65-.65-.65s-.65.29-.65.65v1.32c0 .36.29.65.65.65s.65-.29.65-.65zm-14.7 0c0-.36-.29-.65-.65-.65s-.65.29-.65.65v1.32c0 .36.29.65.65.65s.65-.29.65-.65zm2.42.01c-.36 0-.65.29-.65.65s.29.65.65.65h1.2c.36 0 .65-.29.65-.65s-.29-.65-.65-.65zm7.35 0c-.36 0-.65.29-.65.65s.29.65.65.65h1.2c.36 0 .65-.29.65-.65s-.29-.65-.65-.65zM12 16.92c.35 0 .64-.29.64-.65v-1.2c0-.36-.29-.65-.64-.65-.36 0-.65.29-.65.65v1.2c0 .36.29.65.65.65m8-1.23c0-.36-.29-.65-.65-.65s-.65.29-.65.65v.66c0 .19-.03.37-.07.55-.01.05-.02.1-.02.15 0 .3.2.56.5.63.35.09.7-.13.78-.48.07-.27.11-.56.11-.85zm-14.7 0c0-.36-.29-.65-.65-.65s-.65.29-.65.65v.66c0 .29.04.58.11.85.08.35.43.57.78.48.3-.07.5-.33.5-.63 0-.05-.01-.1-.02-.15a2.5 2.5 0 0 1-.07-.55zm1.8 2.94c-.35-.08-.7.13-.78.48-.02.05-.02.1-.02.15 0 .3.2.56.5.63.27.07.56.11.85.11h.66c.36 0 .65-.29.65-.65s-.29-.65-.65-.65h-.66c-.19 0-.37-.03-.55-.07m10.1 1.26c.3-.07.5-.33.5-.63 0-.05 0-.1-.02-.15a.646.646 0 0 0-.78-.48c-.18.04-.36.07-.55.07h-.66c-.36 0-.65.29-.65.65s.29.65.65.65h.66c.29 0 .58-.04.85-.11m-5.86-1.19c-.36 0-.65.29-.65.65s.29.65.65.65h1.32c.36 0 .65-.29.65-.65s-.29-.65-.65-.65z"/></svg>
